www/assets/icons/currency_exchange.svg

<svg xmlns="http://www.w3.org/2000/svg" width="24" height="24" viewBox="0 0 24 24" fill='currentColor'><path d="M12.89 11.1c-1.78-.59-2.64-.96-2.64-1.9 0-1.02 1.11-1.39 1.81-1.39 1.31 0 1.79.99 1.9 1.34l1.58-.67c-.15-.45-.82-1.92-2.54-2.24V5h-2v1.26c-2.48.56-2.49 2.86-2.49 2.96 0 2.27 2.25 2.91 3.35 3.31 1.58.56 2.28 1.07 2.28 2.03 0 1.13-1.05 1.61-1.98 1.61-1.82 0-2.34-1.87-2.4-2.09l-1.66.67c.63 2.19 2.28 2.78 2.9 2.96V19h2v-1.24c.4-.09 2.9-.59 2.9-3.22 0-1.39-.61-2.61-3.01-3.44M3 21H1v-6h6v2H4.52c1.61 2.41 4.36 4 7.48 4a9 9 0 0 0 9-9h2c0 6.08-4.92 11-11 11-3.72 0-7.01-1.85-9-4.67zm-2-9C1 5.92 5.92 1 12 1c3.72 0 7.01 1.85 9 4.67V3h2v6h-6V7h2.48C17.87 4.59 15.12 3 12 3a9 9 0 0 0-9 9z"/></svg>

<svg width="24" height="24" viewBox="0 0 24 24" xmlns="http://www.w3.org/2000/svg" fill='currentColor'><path d="M12.89 11.1C11.11 10.51 10.25 10.14 10.25 9.2C10.25 8.18 11.36 7.81 12.06 7.81C13.37 7.81 13.85 8.8 13.96 9.15L15.54 8.48C15.39 8.03 14.72 6.56 13 6.24V5H11V6.26C8.52 6.82 8.51 9.12 8.51 9.22C8.51 11.49 10.76 12.13 11.86 12.53C13.44 13.09 14.14 13.6 14.14 14.56C14.14 15.69 13.09 16.17 12.16 16.17C10.34 16.17 9.82 14.3 9.76 14.08L8.1 14.75C8.73 16.94 10.38 17.53 11 17.71V19H13V17.76C13.4 17.67 15.9 17.17 15.9 14.54C15.9 13.15 15.29 11.93 12.89 11.1ZM3 21H1V15H7V17H4.52C6.13 19.41 8.88 21 12 21C16.97 21 21 16.97 21 12H23C23 18.08 18.08 23 12 23C8.28 23 4.99 21.15 3 18.33V21ZM1 12C1 5.92 5.92 1 12 1C15.72 1 19.01 2.85 21 5.67V3H23V9H17V7H19.48C17.87 4.59 15.12 3 12 3C7.03 3 3 7.03 3 12H1Z"/></svg>
